X:5566
T:RISTHGHT- To curb rising thoughts
O:england
S:in Pills to Purge Melancholy, from 1700 edition
Q:1/4=120
L:1/4
M:6/4
K:G
(e/f/)|g3/2f/edcB|B3/2A/GG2B|B2BB2B|B2Be3|\
g3d2e|d2dd2e/d/|d3B3/2c/d|d2dd2G|\
G2G/G/G3/2G/ G/G/|G2AB3/2B/ c/c/|\
d3g2f|e2d(c3/4B/4)A2|(G3G2)|]


